app/images/arrow-pagination.svg

<svg width="12" height="21" viewBox="0 0 12 21" fill="none" xmlns="http://www.w3.org/2000/svg">
<path fill-rule="evenodd" clip-rule="evenodd" d="M1.3125 0.25C1.22135 0.25 1.13672 0.266276 1.05859 0.298828C0.980469 0.33138 0.908854 0.380208 0.84375 0.445312C0.713541 0.575521 0.648438 0.735025 0.648438 0.923828C0.648438 1.11263 0.713541 1.27213 0.84375 1.40234L9.75 10.3086L0.960938 19.0977C0.830729 19.2279 0.765625 19.3841 0.765625 19.5664C0.765625 19.7487 0.830729 19.9049 0.960938 20.0352C1.09115 20.1654 1.25065 20.2305 1.43945 20.2305C1.62826 20.2305 1.78776 20.1654 1.91797 20.0352L11.1758 10.7773C11.306 10.6471 11.3711 10.4909 11.3711 10.3086C11.3711 10.1263 11.306 9.97005 11.1758 9.83984L1.78125 0.445312C1.71615 0.380208 1.64128 0.33138 1.55664 0.298828C1.472 0.266276 1.39062 0.25 1.3125 0.25Z" fill="#4D4D4D"/>
</svg>

<svg width="12" height="21" fill="none" xmlns="http://www.w3.org/2000/svg"><path fill-rule="evenodd" clip-rule="evenodd" d="M1.313.25a.654.654 0 0 0-.47.195.65.65 0 0 0-.195.479.65.65 0 0 0 .196.478L9.75 10.31.96 19.098a.64.64 0 0 0-.194.468.64.64 0 0 0 .195.47c.13.13.29.194.478.194a.65.65 0 0 0 .479-.195l9.258-9.258a.64.64 0 0 0 .195-.468.64.64 0 0 0-.195-.47L1.78.446A.68.68 0 0 0 1.312.25z" fill="#4D4D4D"/></svg>
